packages/katcn/src/icons/svg/bag.svg

<svg width="24" height="24" viewBox="0 0 24 24" fill="none" xmlns="http://www.w3.org/2000/svg">
<path fill-rule="evenodd" clip-rule="evenodd" d="M8 3C6.93579 3 6 3.8759 6 5.01676V16.9832C6 18.067 6.87901 19 8 19H16C17.0425 19 18 18.1457 18 16.8827V5.01676C18 3.93299 17.121 3 16 3H8ZM4 5.01676C4 2.73863 5.86421 1 8 1H16C18.279 1 20 2.88265 20 5.01676V16.8827C20 19.2398 18.1575 21 16 21H8C5.72098 21 4 19.1173 4 16.9832V5.01676Z" fill="black"/>
<path fill-rule="evenodd" clip-rule="evenodd" d="M9 19C9.55228 19 10 19.4477 10 20V22C10 22.5523 9.55228 23 9 23C8.44772 23 8 22.5523 8 22V20C8 19.4477 8.44772 19 9 19Z" fill="black"/>
<path fill-rule="evenodd" clip-rule="evenodd" d="M15 19C15.5523 19 16 19.4477 16 20V22C16 22.5523 15.5523 23 15 23C14.4477 23 14 22.5523 14 22V20C14 19.4477 14.4477 19 15 19Z" fill="black"/>
<path fill-rule="evenodd" clip-rule="evenodd" d="M9.90002 6.09998C10.4523 6.09998 10.9 6.54769 10.9 7.09998V14.8C10.9 15.3523 10.4523 15.8 9.90002 15.8C9.34774 15.8 8.90002 15.3523 8.90002 14.8V7.09998C8.90002 6.54769 9.34774 6.09998 9.90002 6.09998Z" fill="black"/>
<path fill-rule="evenodd" clip-rule="evenodd" d="M14.1 6.09998C14.6523 6.09998 15.1 6.54769 15.1 7.09998V14.8C15.1 15.3523 14.6523 15.8 14.1 15.8C13.5477 15.8 13.1 15.3523 13.1 14.8V7.09998C13.1 6.54769 13.5477 6.09998 14.1 6.09998Z" fill="black"/>
</svg>

<svg xmlns="http://www.w3.org/2000/svg" fill="none" viewBox="0 0 24 24"><path fill="#000" fill-rule="evenodd" d="M8 3c-1.064 0-2 .876-2 2.017v11.966C6 18.067 6.879 19 8 19h8c1.043 0 2-.854 2-2.117V5.017C18 3.933 17.121 3 16 3zM4 5.017C4 2.739 5.864 1 8 1h8c2.279 0 4 1.883 4 4.017v11.866C20 19.24 18.157 21 16 21H8c-2.279 0-4-1.883-4-4.017z" clip-rule="evenodd"/><path fill="#000" fill-rule="evenodd" d="M9 19a1 1 0 0 1 1 1v2a1 1 0 1 1-2 0v-2a1 1 0 0 1 1-1m6 0a1 1 0 0 1 1 1v2a1 1 0 1 1-2 0v-2a1 1 0 0 1 1-1M9.9 6.1a1 1 0 0 1 1 1v7.7a1 1 0 1 1-2 0V7.1a1 1 0 0 1 1-1m4.2 0a1 1 0 0 1 1 1v7.7a1 1 0 1 1-2 0V7.1a1 1 0 0 1 1-1" clip-rule="evenodd"/></svg>
